X:1
T:Title
%%score { 1 | 2 }
L:1/8
Q:1/4=100
M:2/2
K:Bb
V:1 treble nm="Grand Piano"
V:2 bass 
V:1
 [DF][EG]D[CE] [DF]2 [DFB]2 | B2 A2 A4 | A2 c2 G2 A2 | [EG][DF][DF][B,D] [DF]4 | %4
w: J.~E.~Hall * * * * *||||
 [DF][EG][K:bass][F,B,D][F,CE][K:treble] [B,DF]2 [DFB]2 | c2 G2 G4 | B2 A2 d2 c2 | %7
w: |||
[M:3/4] [DB]4 z2 |[M:1/4] A2 |[M:4/4] A4 F2 c2 | c4 A4 | [=EG]2 [Bd]2 [Ac]2 [GB]2 | [FA]6 [Ac]2 | %13
w: ||||||
 [Ac]4 [CFA]2 [FAc]2 | [FBd]4 [DGB]4 | [CFA]2 [CAc]2 [CGB]2 [B,=EG]2 | [A,F]6 z2 | %17
w: ||||
 [B,DF][B,EG][B,D][B,CE] [B,DF]2 [DFB]2 | B2 A2 A4 | A2 c2 G2 A2 | [EG][DF][DF][B,D] [DF]4 | %21
w: ||||
 [DF][EG][K:bass][F,B,D][F,CE][K:treble] [B,DF]2 [DFB]2 | c2 G2 G4 | B2 A2 d2 c2 | %24
w: |||
[M:7/4] [DB]4 z2 z2 z2 z4 |] %25
w: |
V:2
 [B,,B,][B,,B,][B,,B,][B,,B,] [B,,B,]2 B,,2 | [F,CF]2 [F,CF]2 [F,CF]4 | %2
 [F,CF]2 [F,A,F]2 [F,CE]2 [F,CE]2 | [B,,B,][B,,B,][B,,B,][B,,F,] [B,,B,]4 | %4
 [B,,B,][B,,B,]B,,B,, B,,2 B,,2 | [E,CE]2 [E,CE]2 [E,CE]4 | [F,B,D]2 [F,CE]2 [F,B,F]2 [F,A,E]2 | %7
[M:3/4] [B,,B,]4 z2 |[M:1/4] [F,CF]2 |[M:4/4] [F,CF]4 [F,A,]2 [F,A,F]2 | [F,A,F]4 [F,CF]4 | %11
 [C,C]2 [C,C]2 [C,C]2 [C,C]2 | [F,C]6 [F,F]2 | [F,F]4 F,2 F,2 | B,,4 B,,4 | C,2 C,2 C,2 C,2 | %16
 F,6 z2 | B,,B,,B,,B,, B,,2 B,,2 | [F,CF]2 [F,CF]2 [F,CF]4 | [F,CF]2 [F,A,F]2 [F,CE]2 [F,CE]2 | %20
 [B,,B,][B,,B,][B,,B,][B,,F,] [B,,B,]4 | [B,,B,][B,,B,]B,,B,, B,,2 B,,2 | [E,CE]2 [E,CE]2 [E,CE]4 | %23
 [F,B,D]2 [F,CE]2 [F,B,F]2 [F,A,E]2 |[M:7/4] [B,,B,]4 z2 z2 z2 z4 |] %25

